bernoullicharts/pow_x_1_3__bits.svg

<?xml version="1.0" encoding="utf-8" standalone="no"?>
<!DOCTYPE svg PUBLIC "-//W3C//DTD SVG 1.1//EN"
  "http://www.w3.org/Graphics/SVG/1.1/DTD/svg11.dtd">
<!-- Created with matplotlib (https://matplotlib.org/) -->
<svg height="345.6pt" version="1.1" viewBox="0 0 460.8 345.6" width="460.8pt" xmlns="http://www.w3.org/2000/svg" xmlns:xlink="http://www.w3.org/1999/xlink">
 <defs>
  <style type="text/css">
*{stroke-linecap:butt;stroke-linejoin:round;}
  </style>
 </defs>
 <g id="figure_1">
  <g id="patch_1">
   <path d="M 0 345.6 
L 460.8 345.6 
L 460.8 0 
L 0 0 
z
" style="fill:#ffffff;"/>
  </g>
  <g id="axes_1">
   <g id="patch_2">
    <path d="M 57.6 307.584 
L 414.72 307.584 
L 414.72 41.472 
L 57.6 41.472 
z
" style="fill:#ffffff;"/>
   </g>
   <g id="matplotlib.axis_1">
    <g id="xtick_1">
     <g id="line2d_1">
      <defs>
       <path d="M 0 0 
L 0 3.5 
" id="m462ad76612" style="stroke:#000000;stroke-width:0.8;"/>
      </defs>
      <g>
       <use style="stroke:#000000;stroke-width:0.8;" x="73.800255" xlink:href="#m462ad76612" y="307.584"/>
      </g>
     </g>
     <g id="text_1">
      <text style="font-family:DejaVu Sans;font-size:10px;font-style:normal;font-weight:normal;text-anchor:middle;" transform="rotate(-0, 73.800255, 322.182437)" x="73.800255" y="322.182437">0.0</text>
     </g>
    </g>
    <g id="xtick_2">
     <g id="line2d_2">
      <g>
       <use style="stroke:#000000;stroke-width:0.8;" x="138.744153" xlink:href="#m462ad76612" y="307.584"/>
      </g>
     </g>
     <g id="text_2">
      <text style="font-family:DejaVu Sans;font-size:10px;font-style:normal;font-weight:normal;text-anchor:middle;" transform="rotate(-0, 138.744153, 322.182437)" x="138.744153" y="322.182437">0.2</text>
     </g>
    </g>
    <g id="xtick_3">
     <g id="line2d_3">
      <g>
       <use style="stroke:#000000;stroke-width:0.8;" x="203.688051" xlink:href="#m462ad76612" y="307.584"/>
      </g>
     </g>
     <g id="text_3">
      <text style="font-family:DejaVu Sans;font-size:10px;font-style:normal;font-weight:normal;text-anchor:middle;" transform="rotate(-0, 203.688051, 322.182437)" x="203.688051" y="322.182437">0.4</text>
     </g>
    </g>
    <g id="xtick_4">
     <g id="line2d_4">
      <g>
       <use style="stroke:#000000;stroke-width:0.8;" x="268.631949" xlink:href="#m462ad76612" y="307.584"/>
      </g>
     </g>
     <g id="text_4">
      <text style="font-family:DejaVu Sans;font-size:10px;font-style:normal;font-weight:normal;text-anchor:middle;" transform="rotate(-0, 268.631949, 322.182437)" x="268.631949" y="322.182437">0.6</text>
     </g>
    </g>
    <g id="xtick_5">
     <g id="line2d_5">
      <g>
       <use style="stroke:#000000;stroke-width:0.8;" x="333.575847" xlink:href="#m462ad76612" y="307.584"/>
      </g>
     </g>
     <g id="text_5">
      <text style="font-family:DejaVu Sans;font-size:10px;font-style:normal;font-weight:normal;text-anchor:middle;" transform="rotate(-0, 333.575847, 322.182437)" x="333.575847" y="322.182437">0.8</text>
     </g>
    </g>
    <g id="xtick_6">
     <g id="line2d_6">
      <g>
       <use style="stroke:#000000;stroke-width:0.8;" x="398.519745" xlink:href="#m462ad76612" y="307.584"/>
      </g>
     </g>
     <g id="text_6">
      <text style="font-family:DejaVu Sans;font-size:10px;font-style:normal;font-weight:normal;text-anchor:middle;" transform="rotate(-0, 398.519745, 322.182437)" x="398.519745" y="322.182437">1.0</text>
     </g>
    </g>
    <g id="text_7">
     <text style="font-family:DejaVu Sans;font-size:10px;font-style:normal;font-weight:normal;text-anchor:middle;" transform="rotate(-0, 236.16, 335.860562)" x="236.16" y="335.860562">Probability</text>
    </g>
   </g>
   <g id="matplotlib.axis_2">
    <g id="ytick_1">
     <g id="line2d_7">
      <defs>
       <path d="M 0 0 
L -3.5 0 
" id="m9d98bdca69" style="stroke:#000000;stroke-width:0.8;"/>
      </defs>
      <g>
       <use style="stroke:#000000;stroke-width:0.8;" x="57.6" xlink:href="#m9d98bdca69" y="295.719806"/>
      </g>
     </g>
     <g id="text_8">
      <text style="font-family:DejaVu Sans;font-size:10px;font-style:normal;font-weight:normal;text-anchor:end;" transform="rotate(-0, 50.6, 299.519024)" x="50.6" y="299.519024">0</text>
     </g>
    </g>
    <g id="ytick_2">
     <g id="line2d_8">
      <g>
       <use style="stroke:#000000;stroke-width:0.8;" x="57.6" xlink:href="#m9d98bdca69" y="240.316926"/>
      </g>
     </g>
     <g id="text_9">
      <text style="font-family:DejaVu Sans;font-size:10px;font-style:normal;font-weight:normal;text-anchor:end;" transform="rotate(-0, 50.6, 244.116144)" x="50.6" y="244.116144">500</text>
     </g>
    </g>
    <g id="ytick_3">
     <g id="line2d_9">
      <g>
       <use style="stroke:#000000;stroke-width:0.8;" x="57.6" xlink:href="#m9d98bdca69" y="184.914046"/>
      </g>
     </g>
     <g id="text_10">
      <text style="font-family:DejaVu Sans;font-size:10px;font-style:normal;font-weight:normal;text-anchor:end;" transform="rotate(-0, 50.6, 188.713264)" x="50.6" y="188.713264">1000</text>
     </g>
    </g>
    <g id="ytick_4">
     <g id="line2d_10">
      <g>
       <use style="stroke:#000000;stroke-width:0.8;" x="57.6" xlink:href="#m9d98bdca69" y="129.511165"/>
      </g>
     </g>
     <g id="text_11">
      <text style="font-family:DejaVu Sans;font-size:10px;font-style:normal;font-weight:normal;text-anchor:end;" transform="rotate(-0, 50.6, 133.310384)" x="50.6" y="133.310384">1500</text>
     </g>
    </g>
    <g id="ytick_5">
     <g id="line2d_11">
      <g>
       <use style="stroke:#000000;stroke-width:0.8;" x="57.6" xlink:href="#m9d98bdca69" y="74.108285"/>
      </g>
     </g>
     <g id="text_12">
      <text style="font-family:DejaVu Sans;font-size:10px;font-style:normal;font-weight:normal;text-anchor:end;" transform="rotate(-0, 50.6, 77.907504)" x="50.6" y="77.907504">2000</text>
     </g>
    </g>
    <g id="text_13">
     <text style="font-family:DejaVu Sans;font-size:10px;font-style:normal;font-weight:normal;text-anchor:middle;" transform="rotate(-90, 19.070312, 174.528)" x="19.070312" y="174.528">Average Bits Consumed Per Call</text>
    </g>
   </g>
   <g id="line2d_12">
    <path clip-path="url(#pe58963cc9b)" d="M 73.832727 53.568 
L 77.112066 286.313505 
L 80.391405 290.431712 
L 83.670744 290.825515 
L 86.950083 291.910968 
L 90.229421 292.76927 
L 93.50876 293.11033 
L 96.788099 293.143572 
L 100.067438 293.535824 
L 103.346777 293.497042 
L 106.626116 293.756992 
L 109.905455 293.983701 
L 113.184793 293.987025 
L 116.464132 294.12243 
L 119.743471 294.208637 
L 123.02281 294.127305 
L 126.302149 294.301049 
L 129.581488 294.270023 
L 132.860826 294.398558 
L 136.140165 294.599338 
L 139.419504 294.565874 
L 142.698843 294.598895 
L 145.978182 294.688204 
L 149.257521 294.646098 
L 152.53686 294.731197 
L 155.816198 294.806101 
L 159.095537 294.831587 
L 162.374876 294.801226 
L 165.654215 294.858845 
L 168.933554 294.824938 
L 172.212893 294.801226 
L 175.492231 294.847543 
L 178.77157 294.904054 
L 182.050909 294.966326 
L 185.330248 294.964997 
L 188.609587 295.006438 
L 191.888926 295.032145 
L 195.168264 295.015303 
L 198.447603 294.99425 
L 201.726942 295.059847 
L 205.006281 295.097077 
L 208.28562 295.125444 
L 211.564959 295.160458 
L 214.844298 295.110152 
L 218.123636 295.081564 
L 221.402975 295.14561 
L 224.682314 295.122784 
L 227.961653 295.151594 
L 231.240992 295.153588 
L 234.520331 295.170431 
L 237.799669 295.205889 
L 241.079008 295.243119 
L 244.358347 295.201456 
L 247.637686 295.232482 
L 250.917025 295.217856 
L 254.196364 295.243784 
L 257.475702 295.272372 
L 260.755041 295.222288 
L 264.03438 295.256638 
L 267.313719 295.278356 
L 270.593058 295.291652 
L 273.872397 295.284117 
L 277.151736 295.292982 
L 280.431074 295.331099 
L 283.710413 295.350822 
L 286.989752 295.331542 
L 290.269091 295.335753 
L 293.54843 295.339077 
L 296.827769 295.337526 
L 300.107107 295.346169 
L 303.386446 295.367 
L 306.665785 295.355033 
L 309.945124 295.382513 
L 313.224463 295.370546 
L 316.503802 295.37941 
L 319.78314 295.404674 
L 323.062479 295.381848 
L 326.341818 295.392485 
L 329.621157 295.419522 
L 332.900496 295.423733 
L 336.179835 295.414647 
L 339.459174 295.431932 
L 342.738512 295.414203 
L 346.017851 295.445672 
L 349.29719 295.464066 
L 352.576529 295.447002 
L 355.855868 295.431932 
L 359.135207 295.477806 
L 362.414545 295.466947 
L 365.693884 295.440575 
L 368.973223 295.460077 
L 372.252562 295.479136 
L 375.531901 295.460077 
L 378.81124 295.459634 
L 382.090579 295.455423 
L 385.369917 295.483346 
L 388.649256 295.488 
L 391.928595 295.470271 
L 395.207934 295.477363 
L 398.487273 295.483346 
" style="fill:none;stroke:#1f77b4;stroke-linecap:square;stroke-width:1.5;"/>
   </g>
   <g id="patch_3">
    <path d="M 57.6 307.584 
L 57.6 41.472 
" style="fill:none;stroke:#000000;stroke-linecap:square;stroke-linejoin:miter;stroke-width:0.8;"/>
   </g>
   <g id="patch_4">
    <path d="M 414.72 307.584 
L 414.72 41.472 
" style="fill:none;stroke:#000000;stroke-linecap:square;stroke-linejoin:miter;stroke-width:0.8;"/>
   </g>
   <g id="patch_5">
    <path d="M 57.6 307.584 
L 414.72 307.584 
" style="fill:none;stroke:#000000;stroke-linecap:square;stroke-linejoin:miter;stroke-width:0.8;"/>
   </g>
   <g id="patch_6">
    <path d="M 57.6 41.472 
L 414.72 41.472 
" style="fill:none;stroke:#000000;stroke-linecap:square;stroke-linejoin:miter;stroke-width:0.8;"/>
   </g>
   <g id="text_14">
    <text style="font-family:DejaVu Sans;font-size:12px;font-style:normal;font-weight:normal;text-anchor:middle;" transform="rotate(-0, 236.16, 35.472)" x="236.16" y="35.472">Avg. Bits Consumed by pow(x,1/3) Algorithm</text>
   </g>
   <g id="legend_1">
    <g id="patch_7">
     <path d="M 322.080938 64.150125 
L 407.72 64.150125 
Q 409.72 64.150125 409.72 62.150125 
L 409.72 48.472 
Q 409.72 46.472 407.72 46.472 
L 322.080938 46.472 
Q 320.080938 46.472 320.080938 48.472 
L 320.080938 62.150125 
Q 320.080938 64.150125 322.080938 64.150125 
z
" style="fill:#ffffff;opacity:0.8;stroke:#cccccc;stroke-linejoin:miter;"/>
    </g>
    <g id="line2d_13">
     <path d="M 324.080938 54.570438 
L 344.080938 54.570438 
" style="fill:none;stroke:#1f77b4;stroke-linecap:square;stroke-width:1.5;"/>
    </g>
    <g id="line2d_14"/>
    <g id="text_15">
     <text style="font-family:DejaVu Sans;font-size:10px;font-style:normal;font-weight:normal;text-anchor:start;" transform="rotate(-0, 352.080938, 58.070438)" x="352.080938" y="58.070438">pow(x,1/3)</text>
    </g>
   </g>
  </g>
 </g>
 <defs>
  <clipPath id="pe58963cc9b">
   <rect height="266.112" width="357.12" x="57.6" y="41.472"/>
  </clipPath>
 </defs>
</svg>

<svg height="460.8" viewBox="0 0 460.8 345.6" width="614.4" xmlns="http://www.w3.org/2000/svg" xmlns:xlink="http://www.w3.org/1999/xlink"><defs><style>*{stroke-linecap:butt;stroke-linejoin:round}</style></defs><g id="figure_1"><path d="M0 345.6h460.8V0H0z" fill="#fff" id="patch_1"/><g id="axes_1"><path d="M57.6 307.584h357.12V41.472H57.6z" fill="#fff" id="patch_2"/><g id="matplotlib.axis_1"><g id="xtick_1"><g id="line2d_1"><defs><path d="M0 0v3.5" id="m462ad76612" stroke="#000" stroke-width=".8"/></defs><use x="73.8" xlink:href="#m462ad76612" y="307.584" stroke="#000" stroke-width=".8"/></g><text x="73.8" y="322.182" font-family="DejaVu Sans" font-size="10" font-weight="400" text-anchor="middle" id="text_1">0.0</text></g><g id="xtick_2"><use x="138.744" xlink:href="#m462ad76612" y="307.584" stroke="#000" stroke-width=".8" id="line2d_2"/><text x="138.744" y="322.182" font-family="DejaVu Sans" font-size="10" font-weight="400" text-anchor="middle" id="text_2">0.2</text></g><g id="xtick_3"><use x="203.688" xlink:href="#m462ad76612" y="307.584" stroke="#000" stroke-width=".8" id="line2d_3"/><text x="203.688" y="322.182" font-family="DejaVu Sans" font-size="10" font-weight="400" text-anchor="middle" id="text_3">0.4</text></g><g id="xtick_4"><use x="268.632" xlink:href="#m462ad76612" y="307.584" stroke="#000" stroke-width=".8" id="line2d_4"/><text x="268.632" y="322.182" font-family="DejaVu Sans" font-size="10" font-weight="400" text-anchor="middle" id="text_4">0.6</text></g><g id="xtick_5"><use x="333.576" xlink:href="#m462ad76612" y="307.584" stroke="#000" stroke-width=".8" id="line2d_5"/><text x="333.576" y="322.182" font-family="DejaVu Sans" font-size="10" font-weight="400" text-anchor="middle" id="text_5">0.8</text></g><g id="xtick_6"><use x="398.52" xlink:href="#m462ad76612" y="307.584" stroke="#000" stroke-width=".8" id="line2d_6"/><text x="398.52" y="322.182" font-family="DejaVu Sans" font-size="10" font-weight="400" text-anchor="middle" id="text_6">1.0</text></g><text x="236.16" y="335.861" font-family="DejaVu Sans" font-size="10" font-weight="400" text-anchor="middle" id="text_7">Probability</text></g><g id="matplotlib.axis_2"><g id="ytick_1"><g id="line2d_7"><defs><path d="M0 0h-3.5" id="m9d98bdca69" stroke="#000" stroke-width=".8"/></defs><use x="57.6" xlink:href="#m9d98bdca69" y="295.72" stroke="#000" stroke-width=".8"/></g><text x="50.6" y="299.519" font-family="DejaVu Sans" font-size="10" font-weight="400" text-anchor="end" id="text_8">0</text></g><g id="ytick_2"><use x="57.6" xlink:href="#m9d98bdca69" y="240.317" stroke="#000" stroke-width=".8" id="line2d_8"/><text x="50.6" y="244.116" font-family="DejaVu Sans" font-size="10" font-weight="400" text-anchor="end" id="text_9">500</text></g><g id="ytick_3"><use x="57.6" xlink:href="#m9d98bdca69" y="184.914" stroke="#000" stroke-width=".8" id="line2d_9"/><text x="50.6" y="188.713" font-family="DejaVu Sans" font-size="10" font-weight="400" text-anchor="end" id="text_10">1000</text></g><g id="ytick_4"><use x="57.6" xlink:href="#m9d98bdca69" y="129.511" stroke="#000" stroke-width=".8" id="line2d_10"/><text x="50.6" y="133.31" font-family="DejaVu Sans" font-size="10" font-weight="400" text-anchor="end" id="text_11">1500</text></g><g id="ytick_5"><use x="57.6" xlink:href="#m9d98bdca69" y="74.108" stroke="#000" stroke-width=".8" id="line2d_11"/><text x="50.6" y="77.908" font-family="DejaVu Sans" font-size="10" font-weight="400" text-anchor="end" id="text_12">2000</text></g><text transform="rotate(-90 19.07 174.528)" x="19.07" y="174.528" font-family="DejaVu Sans" font-size="10" font-weight="400" text-anchor="middle" id="text_13">Average Bits Consumed Per Call</text></g><path clip-path="url(#pe58963cc9b)" d="M73.833 53.568l3.28 232.746 3.278 4.118 3.28.394 3.28 1.085 3.278.858 3.28.341 3.28.034 3.278.392 3.28-.039 3.28.26 3.278.227 3.28.003 3.28.135 3.278.087 3.28-.082 3.28.174 3.278-.031 3.28.129 3.28.2 3.279-.033 3.279.033 3.28.09 3.279-.043 3.279.085 3.28.075 3.279.026 3.279-.03 3.28.057 3.279-.034 3.279-.024 3.28.047 3.279.056 3.279.062 3.28-.001 3.279.041 3.279.026 3.28-.017 3.279-.02 3.279.065 3.28.037 3.279.028 3.279.035 3.28-.05 3.279-.028 3.279.064 3.28-.023 3.279.029 3.279.002 3.28.016 3.279.036 3.279.037 3.28-.042 3.279.031 3.279-.014 3.28.026 3.279.028 3.279-.05 3.28.035 3.279.021 3.28.014 3.278-.008 3.28.009 3.28.038 3.278.02 3.28-.02 3.28.005 3.278.003 3.28-.001 3.28.008 3.278.021 3.28-.012 3.28.028 3.278-.012 3.28.008 3.28.026 3.278-.023 3.28.01 3.28.028 3.278.004 3.28-.01 3.28.018 3.279-.018 3.279.032 3.28.018 3.279-.017 3.279-.015 3.28.046 3.279-.011 3.279-.026 3.28.02 3.279.018 3.279-.019h3.28l3.279-.005 3.279.028 3.28.005 3.279-.018 3.279.007 3.28.006" fill="none" stroke="#1f77b4" stroke-linecap="square" stroke-width="1.5" id="line2d_12"/><path d="M57.6 307.584V41.472" fill="none" stroke="#000" stroke-linecap="square" stroke-width=".8" id="patch_3"/><path d="M414.72 307.584V41.472" fill="none" stroke="#000" stroke-linecap="square" stroke-width=".8" id="patch_4"/><path d="M57.6 307.584h357.12" fill="none" stroke="#000" stroke-linecap="square" stroke-width=".8" id="patch_5"/><path d="M57.6 41.472h357.12" fill="none" stroke="#000" stroke-linecap="square" stroke-width=".8" id="patch_6"/><text x="236.16" y="35.472" font-family="DejaVu Sans" font-size="12" font-weight="400" text-anchor="middle" id="text_14">Avg. Bits Consumed by pow(x,1/3) Algorithm</text><g id="legend_1"><path d="M322.08 64.15h85.64q2 0 2-2V48.472q0-2-2-2h-85.64q-2 0-2 2V62.15q0 2 2 2z" fill="#fff" opacity=".8" stroke="#ccc" id="patch_7"/><path d="M324.08 54.57h20" fill="none" stroke="#1f77b4" stroke-linecap="square" stroke-width="1.5" id="line2d_13"/><text x="352.081" y="58.07" font-family="DejaVu Sans" font-size="10" font-weight="400" id="text_15">pow(x,1/3)</text></g></g></g><defs><clipPath id="pe58963cc9b"><path d="M57.6 41.472h357.12v266.112H57.6z"/></clipPath></defs></svg>
